X:855
T: Carran
T: Is Trua gan Peata 'n Mhaoir agam
S: B.Breathnach: "Ceol Rince na hEireann" II/259 (gan ainm)
Z: B.Black
L: 1/8
M: 4/4
R: reel
K: D
(3ABA GE FD D2|EF G2 EFGE|A2 GE FD D2|EFGE A2 A2|
A2 GE FD D2|EF G2 EFGE|(3ABA GE FD D2|EFGE A2 A2 ||
AAAB cd e2|fded dc A2|cAAB cdeg|faeA (3dcd e2|
cAAB cdeg|fded dc A2|cAAB cdeg|fAeA (3dcd e2 ||

